DE/EBO/Lf6_20_Tafel_nu.svg

<?xml version="1.0" encoding="UTF-8" standalone="no"?>
<svg width="457px" height="390px" viewBox="0 0 457 390" version="1.1" xmlns="http://www.w3.org/2000/svg" xmlns:xlink="http://www.w3.org/1999/xlink" xmlns:sketch="http://www.bohemiancoding.com/sketch/ns">
    <title>Slice 1</title>
    <description>Created with Sketch (http://www.bohemiancoding.com/sketch)</description>
    <defs></defs>
    <g id="Page-1" stroke="none" stroke-width="1" fill="none" fill-rule="evenodd" sketch:type="MSPage">
        <g id="Lf6_120_Tafel_nu" sketch:type="MSLayerGroup" transform="translate(9.000000, 5.000000)">
            <g id="layer5" transform="translate(0.000000, 0.390010)" sketch:type="MSShapeGroup">
                <path d="M-0.5,-0.32 L219.5,375.17999 L439.5,-0.32 L-0.5,-0.32 Z" id="path4624" stroke="#000000" stroke-width="9" fill="#FFFFFF"></path>
                <path d="M32.201488,18.73635 L219.5,338.42084 L406.79851,18.73635 L32.201488,18.73635 Z" id="path3780" fill="#D97100"></path>
            </g>
            <g id="layer6" transform="translate(181.500000, 42.390010)" fill="#000000" sketch:type="MSShapeGroup">
                <path d="M76.42193,181.179996 L0.82653,181.179996 L0.82653,158.540699 L49.94057,64.608808 C52.1706,60.34382 54.88474,55.88409 54.88474,51.38661 L54.88474,38.46374 C54.88474,28.79909 47.65086,22.85533 38.35805,22.98181 C30.91129,23.08317 22.66004,28.62132 22.66004,38.20648 L22.66004,52.73583 L0.29417,52.73583 L0.29417,39.78347 C0.29417,15.16831 16.62156,-0.29632 39.12646,-0.29632 C59.90916,-0.29632 77.17193,14.49555 77.17193,38.96965 L77.17193,54.35487 C77.17193,62.01631 72.52793,69.736895 69.00345,76.4818 L26.04218,158.698101 L76.42193,158.698101 L76.42193,181.179996" id="path3774"></path>
            </g>
        </g>
    </g>
</svg>

<?xml version="1.0" encoding="UTF-8" standalone="no"?>
<!-- Created with Inkscape (http://www.inkscape.org/) -->

<svg
   xmlns:sketch="http://www.bohemiancoding.com/sketch/ns"
   xmlns:dc="http://purl.org/dc/elements/1.1/"
   xmlns:cc="http://creativecommons.org/ns#"
   xmlns:rdf="http://www.w3.org/1999/02/22-rdf-syntax-ns#"
   xmlns:svg="http://www.w3.org/2000/svg"
   xmlns="http://www.w3.org/2000/svg"
   xmlns:sodipodi="http://sodipodi.sourceforge.net/DTD/sodipodi-0.dtd"
   xmlns:inkscape="http://www.inkscape.org/namespaces/inkscape"
   width="449.35999"
   height="384.07001"
   id="svg2"
   version="1.1"
   inkscape:version="0.48.5 r10040"
   sodipodi:docname="Lf6_10_Tafel_nu.svg">
  <defs
     id="defs4" />
  <sodipodi:namedview
     id="base"
     pagecolor="#ffffff"
     bordercolor="#666666"
     borderopacity="1.0"
     inkscape:pageopacity="0.0"
     inkscape:pageshadow="2"
     inkscape:zoom="1.4"
     inkscape:cx="327.12612"
     inkscape:cy="335.34924"
     inkscape:document-units="px"
     inkscape:current-layer="layer6"
     showgrid="false"
     inkscape:window-width="1920"
     inkscape:window-height="1028"
     inkscape:window-x="1366"
     inkscape:window-y="30"
     inkscape:window-maximized="1" />
  <metadata
     id="metadata7">
    <rdf:RDF>
      <cc:Work
         rdf:about="">
        <dc:format>image/svg+xml</dc:format>
        <dc:type
           rdf:resource="http://purl.org/dc/dcmitype/StillImage" />
        <dc:title></dc:title>
      </cc:Work>
    </rdf:RDF>
  </metadata>
  <g
     inkscape:label="Ebene 1"
     inkscape:groupmode="layer"
     id="layer1"
     transform="translate(0,-668.2922)"
     style="display:inline" />
  <g
     inkscape:groupmode="layer"
     id="layer4"
     inkscape:label="orange-weiss"
     transform="translate(0,209.39001)">
    <path
       style="color:#000000;fill:#d97100;fill-opacity:1;stroke:#ffffff;stroke-width:15;stroke-linecap:round;stroke-linejoin:round;stroke-miterlimit:4;stroke-opacity:1;stroke-dasharray:none;stroke-dashoffset:0;marker:none;visibility:visible;display:inline;overflow:visible;enable-background:accumulate"
       d="m 432.3545,-196.12211 c -142.257,0.2431 -281.4368,-0.8006 -415.1475,-1.1875 66.0146,116.334203 139.1155,237.711803 205.1301,354.046 68.2981,-116.165297 141.8641,-236.459897 210.1622,-352.6252 -2.1381,3.7034 -7.2936,-0.2333 -0.1448,-0.2333 z"
       id="path3047"
       inkscape:connector-curvature="0"
       sodipodi:nodetypes="ccccc" />
  </g>
  <g
     inkscape:groupmode="layer"
     id="layer5"
     inkscape:label="schwarz"
     transform="translate(0,209.39001)">
    <path
       sodipodi:nodetypes="ccccc"
       inkscape:connector-curvature="0"
       id="path4624"
       d="m 441.5343,-203.03571 c -170.4274,0 -300.3326,-0.5962 -437.0343,-1.8584 66.0146,116.334203 151.3149,258.739903 217.3295,375.0741 68.2981,-116.165297 223.0279,-373.1969 223.0279,-373.1969 z"
       style="color:#000000;fill:none;stroke:#000000;stroke-width:9;stroke-linecap:round;stroke-linejoin:round;stroke-miterlimit:4;stroke-opacity:1;stroke-dasharray:none;stroke-dashoffset:0;marker:none;visibility:visible;display:inline;overflow:visible;enable-background:accumulate" />
  </g>
  <g
     inkscape:groupmode="layer"
     id="layer6"
     inkscape:label="Ziffer"
     transform="translate(0,209.39001)">
    <g
       id="layer6-6"
       transform="translate(190.5,-167.92999)"
       sketch:type="MSShapeGroup"
       style="fill:#000000;stroke:none">
      <path
         d="m 76.42193,181.18 -75.5954,0 0,-22.6393 49.11404,-93.931892 C 52.1706,60.34382 54.88474,55.88409 54.88474,51.38661 l 0,-12.92287 c 0,-9.66465 -7.23388,-15.60841 -16.52669,-15.48193 -7.44676,0.10136 -15.69801,5.63951 -15.69801,15.22467 l 0,14.52935 -22.36587,0 0,-12.95236 c 0,-24.61516 16.32739,-40.07979 38.83229,-40.07979 20.7827,0 38.04547,14.79187 38.04547,39.26597 l 0,15.38522 c 0,7.66144 -4.644,15.382025 -8.16848,22.12693 l -42.96127,82.2163 50.37975,0 0,22.4819"
         id="path3774"
         inkscape:connector-curvature="0" />
    </g>
  </g>
</svg>
